X: 175
T: the Animal Comedians   [D]
R: reel+waltz
S: Page "88" image from Darlene Wigton, Nov 2015
Z: 2015 John Chambers <jc:trillian.mit.edu>
M: C|
L: 1/16
K: D
% - - - - - - - - - - - - - - - - - - - - - - - - - - - - -
|:\
"D"d2 D4 f2 | "A7"e2d2c2e2 | "D"d2 D4 f2 | "A7"{f}e2dc "D"d4 |\
"D"d2 D4 f2 | "A7"e2d2c2e2 | "D"d2c2B2A2 | "E7"(cBA^G) "A"A4 :|
|:\
"A7"a2 A4 a2 | "(D)"agfg a2A2 | "D"g2f2"A7"e2d2 | edcB A4 |\
"D"d2A2"A"e2A2 | "D"f2A2"A7"g2A2 | "D"{g}f2ed "A7"{f}e2dc | "D"{c}d4 D4 :|
K: Dm
M: 3/4
L: 1/8
|:\
"Dm"(D2 F2) A2 | (d2 e2) f2 | "A7"egfd^cd | {d2}e4 A2 |\
"Gm"(B2 A2) G2 | "Dm"(A2 ^c2) d2 | "A7"ef g2 f2 | Tf2 e4 :|
|:\
"Dm"(agfg) a2 | F6 | "Gm"(gfef) g2 | "(A7)"G6 |\
"Dm"fedefg | "A7"e2 a2 g2 | f/e/d f2 e2 | "Dm"d6 :|
% - - - - - - - - - - Dance description - - - - - - - - - -
%%begintext align
%% Foot it and cast off 2 Couples .| Foot it & cast up again
%% :| Cross over 2 Couples Lead up to the Top foot it to your
%% Partner The first Man goes the Minuet Step quite round
%% with the 2d Woman the first Woman the same with the 2d
%% Man then the same all 4 round :|| Then the Man leads his
%% Partner round into the 2d Couples place :||:
%%endtext
% - - - - - - - - - - - - - - - - - - - - - - - - - - - - -

%%sep 1 1 500

